images/skills/2-skills-ux-sm.svg

<?xml version="1.0" encoding="UTF-8" standalone="no"?>
<svg width="56px" height="56px" viewBox="0 0 56 56" version="1.1" xmlns="http://www.w3.org/2000/svg" xmlns:xlink="http://www.w3.org/1999/xlink" xmlns:sketch="http://www.bohemiancoding.com/sketch/ns">
    <!-- Generator: Sketch 3.2.2 (9983) - http://www.bohemiancoding.com/sketch -->
    <title>ux</title>
    <desc>Created with Sketch.</desc>
    <defs></defs>
    <g id="Small" stroke="none" stroke-width="1" fill="none" fill-rule="evenodd" sketch:type="MSPage">
        <g id="ux" sketch:type="MSLayerGroup" fill="#FFFFFF">
            <path d="M36.3131569,35.2651815 C36.2530215,35.5663754 36.0119631,35.7471262 35.7107692,35.7471262 C35.4095754,35.7471262 35.1686892,35.5663754 35.1083815,35.2651815 C34.6264369,33.3977108 33.5421046,32.3133785 32.1565785,32.3133785 C30.7107446,32.3133785 29.2650831,33.5181538 29.2650831,35.5663754 C29.2650831,38.2169846 33.6024123,42.0723692 35.7107692,43.6987815 C37.8191262,42.0723692 42.1564554,38.2169846 42.1564554,35.5663754 C42.1564554,33.5181538 40.7107938,32.3133785 39.26496,32.3133785 C37.8794338,32.3133785 36.7951015,33.3977108 36.3131569,35.2651815" id="Fill-1" sketch:type="MSShapeGroup"></path>
            <path d="M13.7846154,17.4942277 L13.7846154,19.4707692 L38.2523077,19.4707692 L38.2523077,17.4942277 C38.2523077,16.4702031 37.3974892,15.5076923 36.3734646,15.5076923 L15.7711508,15.5076923 C14.7471262,15.5076923 13.7846154,16.4702031 13.7846154,17.4942277 L13.7846154,17.4942277 Z M22.2170092,16.89184 C22.5783385,16.89184 22.8795323,17.1328985 22.8795323,17.4942277 C22.8795323,17.8557292 22.5783385,18.1569231 22.2170092,18.1569231 C21.8555077,18.1569231 21.5543138,17.8557292 21.5543138,17.4942277 C21.5543138,17.1328985 21.8555077,16.89184 22.2170092,16.89184 L22.2170092,16.89184 Z M19.6265354,16.89184 C19.9880369,16.89184 20.2892308,17.1328985 20.2892308,17.4942277 C20.2892308,17.8557292 19.9880369,18.1569231 19.6265354,18.1569231 C19.2652062,18.1569231 19.0241477,17.8557292 19.0241477,17.4942277 C19.0241477,17.1328985 19.2652062,16.89184 19.6265354,16.89184 L19.6265354,16.89184 Z M17.0965415,16.89184 C17.4578708,16.89184 17.6989292,17.1328985 17.6989292,17.4942277 C17.6989292,17.8557292 17.4578708,18.1569231 17.0965415,18.1569231 C16.73504,18.1569231 16.4338462,17.8557292 16.4338462,17.4942277 C16.4338462,17.1328985 16.73504,16.89184 17.0965415,16.89184 L17.0965415,16.89184 Z" id="Fill-2" sketch:type="MSShapeGroup"></path>
            <path d="M28.7753846,0 L28.7753846,2.26446769 L50.2266585,14.6089354 C50.4937354,14.7628062 50.6584615,15.0474585 50.6584615,15.3557169 L50.6584615,40.6442831 C50.6584615,40.9525415 50.4937354,41.2371938 50.2266585,41.3910646 L28.7753846,53.7355323 L28.7753846,56 L56,56 L56,0 L28.7753846,0" id="Fill-3" sketch:type="MSShapeGroup"></path>
            <path d="M27.0523077,53.2372185 C27.0523077,52.92896 27.2170338,52.6443077 27.4841108,52.4904369 L48.9353846,40.1459692 L48.9353846,15.8540308 L27.4841108,3.50956308 C27.2170338,3.35569231 27.0523077,3.07104 27.0523077,2.76278154 L27.0523077,0 L0,0 L0,56 L27.0523077,56 L27.0523077,53.2372185 L27.0523077,53.2372185 Z M43.4215385,35.5663754 C43.4215385,39.6626462 36.3734646,44.7831138 36.0722708,45.0241723 C35.9516554,45.0843077 35.8312123,45.1446154 35.7107692,45.1446154 C35.5903262,45.1446154 35.4698831,45.0843077 35.3492677,45.0241723 C35.0480738,44.7831138 28,39.6626462 28,35.5663754 C28,32.7350154 30.1083569,30.98816 32.1565785,30.98816 C33.3613538,30.98816 34.8071877,31.6506831 35.7107692,33.2772677 C36.6143508,31.6506831 38.0601846,30.98816 39.26496,30.98816 C41.3131815,30.98816 43.4215385,32.7350154 43.4215385,35.5663754 L43.4215385,35.5663754 Z M36.3734646,14.3015385 C38.12032,14.3015385 39.6307692,15.7473723 39.6307692,17.4942277 L39.6307692,27.7952985 C39.6307692,28.1568 39.2728862,28.4579938 38.9113846,28.4579938 C38.5498831,28.4579938 38.2523077,28.1568 38.2523077,27.7952985 L38.2523077,20.6769231 L13.7846154,20.6769231 L13.7846154,32.9157662 C13.7846154,34.0000985 14.7471262,34.8061538 15.7711508,34.8061538 L24.8073108,34.8061538 C25.16864,34.8061538 25.4096985,35.1338831 25.4096985,35.4953846 C25.4096985,35.8568862 25.16864,36.1846154 24.8073108,36.1846154 L15.7711508,36.1846154 C14.0747815,36.1846154 12.5784615,34.8056369 12.5784615,33.0720492 L12.5784615,17.3431138 C12.5784615,15.6646646 14.0747815,14.3015385 15.7711508,14.3015385 L36.3734646,14.3015385 L36.3734646,14.3015385 Z M25.0249354,52.3917046 C24.8907077,52.3917046 24.7552738,52.3586215 24.6288,52.2928 L22.5795446,51.1133538 L5.60017231,41.3188677 C5.33361231,41.1651692 5.16923077,40.8805169 5.16923077,40.5726031 L5.16923077,15.3257354 C5.16923077,15.0178215 5.33361231,14.7333415 5.60017231,14.5794708 L24.4189292,3.72374154 C24.8314338,3.48561231 25.3580062,3.62742154 25.5957908,4.03940923 C25.8334031,4.45139692 25.6921108,4.97779692 25.28064,5.21575385 L6.89230769,15.82336 L6.89230769,40.0978954 L23.3873231,49.5901538 L25.4563938,50.7837292 C25.8683815,51.0215138 26.0098462,51.5482585 25.7720615,51.9604185 C25.6126769,52.2371446 25.3228554,52.3917046 25.0249354,52.3917046 L25.0249354,52.3917046 Z" id="Fill-4" sketch:type="MSShapeGroup"></path>
        </g>
    </g>
</svg>

<svg width="56" height="56" viewBox="0 0 56 56" xmlns="http://www.w3.org/2000/svg"><title>ux</title><desc>Created with Sketch.</desc><g fill="#fff"><path d="M36.313 35.265c-.06.3-.3.482-.602.482-.3 0-.54-.18-.602-.482-.482-1.867-1.566-2.952-2.95-2.952-1.447 0-2.893 1.205-2.893 3.253 0 2.65 4.337 6.506 6.446 8.133 2.11-1.628 6.446-5.483 6.446-8.134 0-2.048-1.445-3.253-2.89-3.253-1.387 0-2.47 1.085-2.953 2.952"/><path d="M13.785 17.494v1.977h24.467v-1.976c0-1.024-.855-1.986-1.88-1.986h-20.6c-1.025 0-1.987.962-1.987 1.986zm8.432-.602c.36 0 .663.24.663.602s-.302.663-.663.663c-.36 0-.663-.3-.663-.663 0-.36.302-.602.663-.602zm-2.59 0c.36 0 .662.24.662.602s-.302.663-.663.663c-.362 0-.603-.3-.603-.663 0-.36.24-.602.603-.602zm-2.53 0c.36 0 .602.24.602.602s-.242.663-.603.663c-.362 0-.663-.3-.663-.663 0-.36.3-.602.663-.602z"/><path d="M28.775 0v2.264L50.227 14.61c.267.153.43.437.43.746v25.288c0 .31-.163.593-.43.747L28.775 53.737V56H56V0H28.775"/><path d="M27.052 53.237c0-.308.165-.593.432-.747l21.45-12.344V15.854L27.485 3.51c-.267-.154-.432-.44-.432-.747V0H0v56h27.052v-2.763zm16.37-17.67c0 4.096-7.05 9.216-7.35 9.457-.12.06-.24.12-.36.12-.122 0-.242-.06-.363-.12-.302-.24-7.35-5.36-7.35-9.458 0-2.83 2.108-4.578 4.157-4.578 1.204 0 2.65.663 3.554 2.29.904-1.627 2.35-2.29 3.555-2.29 2.048 0 4.157 1.747 4.157 4.578zM36.372 14.3c1.748 0 3.26 1.445 3.26 3.192v10.3c0 .363-.36.664-.72.664-.362 0-.66-.3-.66-.663v-7.118H13.785v12.24c0 1.083.962 1.89 1.986 1.89h9.037c.362 0 .603.327.603.688 0 .362-.24.69-.603.69H15.77c-1.695 0-3.192-1.38-3.192-3.113v-15.73c0-1.677 1.497-3.04 3.193-3.04h20.603zm-11.347 38.09c-.134 0-.27-.033-.396-.1l-2.05-1.18L5.6 41.32c-.266-.155-.43-.44-.43-.747V15.326c0-.308.164-.593.43-.747L24.42 3.723c.41-.238.938-.097 1.176.315.237.41.096.938-.315 1.176L6.893 15.823v24.275l16.495 9.492 2.07 1.194c.41.238.553.764.315 1.176-.16.277-.45.432-.747.432z"/></g></svg>
